X:1
T:Title
%%score { ( 1 4 ) | ( 2 3 ) }
L:1/8
Q:1/4=108
M:4/4
K:G
V:1 treble nm="Grand Piano"
V:4 treble 
V:2 bass 
V:3 bass 
V:1
 [G,CEG]2 [G,CEG]2 [G,CEG]2 [G,CEG]2 | z2 G,2 [G,CEG]2 z z/ z/4 B/4 | %2
w: Samuel~W.~Beazely * * *||
 z2 G,2 [G,B,=FG]2 z z/ z/4 B/4 | [CEA]4 z4 | [B,EG]2 [B,^DG]2 [B,EGB]2 [G,EG]2 | %5
w: |||
 [DGB]4[K:bass][K:treble] [DGBd]4 | [EAc]2 [CEA]2 [B,DG]2 [CDF]2 | [B,DG]6 z2 | %8
w: |||
 [G,CEG]2 [G,CEG]2 [G,CEG]2 [G,CEG]2 | z2 G,2 [G,CEG]2 z z/ z/4 B/4 | %10
w: ||
 z2 G,2 [G,B,=FG]2 z z/ z/4 B/4 | [CEA]4 z4 | [B,^DFB]2 [DFB]>[FB] [B,EGB]2 B>B | [EGc]4 [EGe]4 | %14
w: ||||
 [DGBd]2 [CDFA]2 [B,DGB]2 [DFc]2 |[M:3/4] [C=FBd]6[K:bass] |[M:1/4][K:treble] [B,=FG]>[B,FG] | %17
w: |||
[M:4/4] [Ge]4 [Ge]4 | [EG]>[^DF] [EG]>[DF] [EG]4 | =F4 d4 | B>c A>B [EG]2 [EG]>[EG] | [Ge]4 [Ge]4 | %22
w: |||||
 [EG]>[^DF] [EG]>[DF] [EG]4 | [EB]2 [EB]>[EA] [B,EG]2 [A,^DF]2 | [G,E]6 .[B,=FG]>[B,FG] | %25
w: |||
 [Ge]4 [Ge]4 | [EG]>[^DF] [EG]>[DF] [EG]4 | =F4 d4 | B>c A>B [EG]2 [EG]>[EG] | e4 e4 | %30
w: |||||
 [DAd]>[EA^c] [DAd]>[Ae] [A=f]2 d2 | c2 c>c c2 [=FB]2 | [Ec]6[K:bass] z2 |] %33
w: |||
V:2
 C,2 G,,2 C,2 z z/ z/4[K:treble] B/4 | [C,G,]2 G,,2 C,2 G,,2 | [D,G,]2 G,,2 D,2 G,,2 | %3
 [C,G,]2 G,,2 C,2 G,,2 | E,2 z z/ A/ E,2 z z/ A/ | [D,G,]2 z2 [G,,G,]2 B,,2 | C,2 C,2 D,2 D,2 | %7
 G,2 B,,D, G,=F,E,D, | C,2 G,,2 C,2 z z/ z/4[K:treble] B/4 | [C,G,]2 G,,2 C,2 G,,2 | %10
 [D,G,]2 z2 z4 | [C,G,]2 G,,2 C,2 G,,2 | B,,2 z z/ ^D/ E,2 [D,G,]2 | [C,G,]4 ^C,4 | %14
 D,2 C,2 B,,2 [A,,A,]2 |[M:3/4] [G,,G,]2 =F,,2 E,,2 |[M:1/4] D,>D, |[M:4/4] [C,C]4 [C,C]4 | %18
 [C,C]>[C,C] [C,C]>[C,C] [C,C]4 | [G,B,D]4 [G,B,=F]4 | %20
 [G,D=F]>[G,DF] [G,DF]>[G,DF][K:bass] [C,C]2 [C,C]>[C,C] | [C,C]4 [C,C]4 | %22
 [C,C]>[C,C] [C,C]>[C,C] [C,C]4 | [B,,G,]2 [B,,G,]>[B,,G,] B,,2 B,,2 | E,6 D,>D, | [C,C]4 [C,C]4 | %26
 [C,C]>[C,C] [C,C]>[C,C] [C,C]4 | [G,B,D]4 [G,B,=F]4 | %28
 [G,D=F]>[G,DF] [G,DF]>[G,DF][K:bass] [C,C]2 [C,C]>[C,C] | G2 z2 [A,A]2 z2 | %30
 =F,>G, F,>[E,^C] [D,D]2 [F,A,=F]2 | [G,CE]2 [A,CE]>[A,CE] [G,CE]2 [G,,G,]2 | [C,G,C]6 z2 |] %33
V:3
 z4 z2 G,,2[K:treble] | x8 | x8 | x8 | z2 B,,2 z2 ^C,2 | x8 | x8 | x8 | z4 z2 G,,2[K:treble] | x8 | %10
 B,2- [G,,B,]2 D,2 G,,2 | x8 | z2 B,,2 z4 | x8 | x8 |[M:3/4] x6 |[M:1/4] x2 |[M:4/4] x8 | x8 | x8 | %20
 x4[K:bass] x4 | x8 | x8 | x8 | x8 | x8 | x8 | x8 | x4[K:bass] x4 | C2- [B,C]2 C2- [G,C]2 | x8 | %31
 x8 | x8 |] %33
V:4
 x8 | [CEA]4 z2 G,2 | [B,=FA]4 z2 G,2 | z2 G,2 [G,CEG]2 G,2 | x8 | %5
 z2[K:bass] [B,,G,]2[K:treble] z2 G,2 | x8 | x8 | x8 | [CEA]4 z2 G,2 | A4 z2 G,2 | %11
 z2 G,2 [G,CEG]2 G,2 | z2 B,2 z2 =F2 | x8 | x8 |[M:3/4] z2[K:bass] =F,2 E,2 |[M:1/4][K:treble] x2 | %17
[M:4/4] x8 | x8 | x8 | x8 | x8 | x8 | x8 | x8 | x8 | x8 | x8 | x8 | z2 ^G2 z2 _B2 | x8 | x8 | %32
 z[K:bass] A,,G,,E,, C,,2 z2 |] %33

